modules/stroke-7/icons/exapnd2.svg

<?xml version="1.0" encoding="utf-8"?>
<!-- Generated by IcoMoon.io -->
<!DOCTYPE svg PUBLIC "-//W3C//DTD SVG 1.1//EN" "http://www.w3.org/Graphics/SVG/1.1/DTD/svg11.dtd">
<svg version="1.1" xmlns="http://www.w3.org/2000/svg" xmlns:xlink="http://www.w3.org/1999/xlink" width="32" height="32" viewBox="0 0 32 32">
<g id="icomoon-ignore">
</g>
<path d="M3.205 28.795h10.662v-10.664h-10.662v10.664zM4.271 19.198h8.53v8.531h-8.53v-8.531z" fill="#000000"></path>
<path d="M23.464 16h1.066v-8.53h-8.53v1.066h6.762l-7.88 7.88 0.754 0.754 7.828-7.828z" fill="#000000"></path>
<path d="M3.205 3.205v12.795h1.066v-11.729h23.457v23.457h-11.729v1.066h12.795v-25.59z" fill="#000000"></path>
</svg>

<svg xmlns="http://www.w3.org/2000/svg" width="32" height="32" viewBox="0 0 32 32"><path d="M3.205 28.795h10.662V18.131H3.205v10.664zm1.066-9.597h8.53v8.531h-8.53v-8.531zM23.464 16h1.066V7.47H16v1.066h6.762l-7.88 7.88.754.754 7.828-7.828z"/><path d="M3.205 3.205V16h1.066V4.271h23.457v23.457H15.999v1.066h12.795V3.204z"/></svg>
